X:450
T:Larry Redican's Bow
N:IrTrad, 6/99
C:Larry Redican
R:reel
D:Dervish: "The Boys of Sligo"
D:Seamus Connolly: "Notes from my Mind"
Z:id:hn-reel-224
M:C|
K:D
D2FD A,DFD|E2GE B,EGE|D2dA BAFA|GEFD EGFE|
D2FD A,DFD|E2GE B,EGE|D2dA BAFA|GECE D4:|
|:~B3A ~B3c|dBBA BdcB|cA~A2 fAec|ABce fcec|
~B3A B2Bc|dBBA ~B3c|1 dBcA BAFA|Bcde fcec:|2 dBcA BAFE|FADE FEEF||
